images/icons/camera.svg

<svg enable-background="new 0 0 512 512" viewBox="0 0 512 512" xmlns="http://www.w3.org/2000/svg"><path d="m101.095 146.557v-73.156c0-6.196-5.023-11.219-11.219-11.219h-37.383c-6.196 0-11.219 5.023-11.219 11.219v73.156" fill="#e5e9ea"/><path d="m68.441 146.557v-84.375h-15.948c-6.196 0-11.219 5.023-11.219 11.219v73.156" fill="#d1d1d1"/><path d="m512 159.89v273.711c0 18.766-15.214 33.98-33.98 33.98h-444.04c-18.766 0-33.98-15.214-33.98-33.98v-273.711c0-18.766 15.214-33.98 33.98-33.98h67.19c14.472 0 27.366-9.164 32.11-22.841l12.403-35.798c4.744-13.678 17.627-22.852 32.11-22.852h198.214c14.472 0 27.355 9.174 32.099 22.852l12.413 35.798c4.744 13.678 17.627 22.841 32.099 22.841h25.401c18.767 0 33.981 15.214 33.981 33.98z" fill="#fcb65f"/><path d="m60.625 467.581h-26.645c-18.766 0-33.98-15.214-33.98-33.98v-273.711c0-18.766 15.214-33.98 33.98-33.98h24.534v.063c-17.784 1.097-31.869 15.862-31.869 33.917v273.711c0 18.767 15.214 33.98 33.98 33.98z" fill="#e29a4b"/><path d="m204.437 44.419c-14.482 0-27.366 9.174-32.11 22.852l-12.403 35.798c-4.744 13.678-17.638 22.841-32.11 22.841h-22.8v-.219c12.873-1.463 23.949-10.167 28.264-22.622l12.403-35.798c4.744-13.678 17.627-22.852 32.11-22.852z" fill="#e29a4b"/><path d="m512 218.384v215.218c0 18.766-15.214 33.98-33.98 33.98h-444.04c-18.766 0-33.98-15.214-33.98-33.98v-215.218z" fill="#53bce9"/><path d="m60.625 467.581h-26.645c-18.766 0-33.98-15.214-33.98-33.98v-215.217h26.645v215.218c0 18.766 15.214 33.979 33.98 33.979z" fill="#36a6ce"/><circle cx="256" cy="294.139" fill="#e5e9ea" r="141.573"/><path d="m356.101 294.139c0 29.477-12.737 55.975-33.019 74.303-17.752 16.039-41.263 25.808-67.082 25.808-25.809 0-49.33-9.77-67.082-25.809-20.281-18.317-33.029-44.826-33.029-74.303s12.748-55.986 33.029-74.292c17.753-16.05 41.273-25.809 67.082-25.809 25.819 0 49.33 9.77 67.082 25.809 20.282 18.318 33.019 44.816 33.019 74.293z" fill="#566368"/><path d="m326.777 223.354c20.843 20.843 30.574 48.587 29.192 75.888-27.301 1.381-55.045-8.349-75.888-29.192s-30.574-48.587-29.185-75.88c27.293-1.389 55.038 8.342 75.881 29.184z" fill="#6f7b7f"/><path d="m231.908 318.224c20.843 20.843 30.574 48.587 29.192 75.888-27.294 1.389-55.053-8.341-75.895-29.185-20.843-20.843-30.574-48.602-29.178-75.888 27.294-1.39 55.038 8.341 75.881 29.185z" fill="#6f7b7f"/><path d="m255.997 402.082c-59.519 0-107.942-48.423-107.942-107.942s48.423-107.942 107.942-107.942 107.942 48.422 107.942 107.942-48.423 107.942-107.942 107.942zm0-200.211c-50.877 0-92.269 41.392-92.269 92.269s41.392 92.269 92.269 92.269 92.269-41.392 92.269-92.269-41.392-92.269-92.269-92.269z" fill="#435054"/><path d="m255.997 253.955c-22.158 0-40.185 18.027-40.185 40.186s18.027 40.185 40.185 40.185 40.185-18.027 40.185-40.185-18.027-40.186-40.185-40.186z" fill="#435054"/><path d="m306.857 118.078h61.583c8.096 0 14.66-6.563 14.66-14.66v-16.132c0-8.096-6.563-14.66-14.66-14.66h-61.583c-8.096 0-14.66 6.563-14.66 14.66v16.132c0 8.096 6.564 14.66 14.66 14.66z" fill="#e5e9ea"/><path d="m368.44 125.914h-61.583c-12.405 0-22.497-10.092-22.497-22.497v-16.13c0-12.405 10.092-22.497 22.497-22.497h61.583c12.405 0 22.497 10.092 22.497 22.497v16.131c-.001 12.405-10.093 22.496-22.497 22.496zm-61.583-45.451c-3.763 0-6.823 3.061-6.823 6.823v16.131c0 3.763 3.06 6.823 6.823 6.823h61.583c3.763 0 6.823-3.061 6.823-6.823v-16.13c0-3.763-3.061-6.823-6.823-6.823 0-.001-61.583-.001-61.583-.001z" fill="#e29a4b"/><circle cx="97.332" cy="410.237" fill="#566368" r="28.338"/></svg>

<?xml version="1.0" encoding="iso-8859-1"?>
<!-- Generator: Adobe Illustrator 19.0.0, SVG Export Plug-In . SVG Version: 6.00 Build 0)  -->
<svg version="1.1" id="Capa_1" xmlns="http://www.w3.org/2000/svg" xmlns:xlink="http://www.w3.org/1999/xlink" x="0px" y="0px"
	 viewBox="0 0 512 512" style="enable-background:new 0 0 512 512;" xml:space="preserve">
<path style="fill:#E5E9EA;" d="M101.095,146.557V73.401c0-6.196-5.023-11.219-11.219-11.219H52.493
	c-6.196,0-11.219,5.023-11.219,11.219v73.156"/>
<path style="fill:#D1D1D1;" d="M68.441,146.557V62.182H52.493c-6.196,0-11.219,5.023-11.219,11.219v73.156"/>
<path style="fill:#FCB65F;" d="M512,159.89v273.711c0,18.766-15.214,33.98-33.98,33.98H33.98c-18.766,0-33.98-15.214-33.98-33.98
	V159.89c0-18.766,15.214-33.98,33.98-33.98h67.19c14.472,0,27.366-9.164,32.11-22.841l12.403-35.798
	c4.744-13.678,17.627-22.852,32.11-22.852h198.214c14.472,0,27.355,9.174,32.099,22.852l12.413,35.798
	c4.744,13.678,17.627,22.841,32.099,22.841h25.401C496.786,125.91,512,141.124,512,159.89z"/>
<g>
	<path style="fill:#E29A4B;" d="M60.625,467.581H33.98c-18.766,0-33.98-15.214-33.98-33.98V159.89
		c0-18.766,15.214-33.98,33.98-33.98h24.534v0.063c-17.784,1.097-31.869,15.862-31.869,33.917v273.711
		C26.645,452.368,41.859,467.581,60.625,467.581z"/>
	<path style="fill:#E29A4B;" d="M204.437,44.419c-14.482,0-27.366,9.174-32.11,22.852l-12.403,35.798
		c-4.744,13.678-17.638,22.841-32.11,22.841h-22.8v-0.219c12.873-1.463,23.949-10.167,28.264-22.622l12.403-35.798
		c4.744-13.678,17.627-22.852,32.11-22.852C177.793,44.419,204.437,44.419,204.437,44.419z"/>
</g>
<path style="fill:#53BCE9;" d="M512,218.384v215.218c0,18.766-15.214,33.98-33.98,33.98H33.98c-18.766,0-33.98-15.214-33.98-33.98
	V218.384H512z"/>
<path style="fill:#36A6CE;" d="M60.625,467.581H33.98c-18.766,0-33.98-15.214-33.98-33.98V218.384h26.645v215.218
	C26.645,452.368,41.859,467.581,60.625,467.581z"/>
<circle style="fill:#E5E9EA;" cx="256" cy="294.139" r="141.573"/>
<path style="fill:#566368;" d="M356.101,294.139c0,29.477-12.737,55.975-33.019,74.303C305.33,384.481,281.819,394.25,256,394.25
	c-25.809,0-49.33-9.77-67.082-25.809c-20.281-18.317-33.029-44.826-33.029-74.303s12.748-55.986,33.029-74.292
	c17.753-16.05,41.273-25.809,67.082-25.809c25.819,0,49.33,9.77,67.082,25.809C343.364,238.164,356.101,264.662,356.101,294.139z"/>
<g>
	<path style="fill:#6F7B7F;" d="M326.777,223.354c20.843,20.843,30.574,48.587,29.192,75.888
		c-27.301,1.381-55.045-8.349-75.888-29.192c-20.843-20.843-30.574-48.587-29.185-75.88
		C278.189,192.781,305.934,202.512,326.777,223.354z"/>
	<path style="fill:#6F7B7F;" d="M231.908,318.224c20.843,20.843,30.574,48.587,29.192,75.888
		c-27.294,1.389-55.053-8.341-75.895-29.185c-20.843-20.843-30.574-48.602-29.178-75.888
		C183.321,287.649,211.065,297.38,231.908,318.224z"/>
</g>
<g>
	<path style="fill:#435054;" d="M255.997,402.082c-59.519,0-107.942-48.423-107.942-107.942s48.423-107.942,107.942-107.942
		S363.939,234.62,363.939,294.14S315.516,402.082,255.997,402.082z M255.997,201.871c-50.877,0-92.269,41.392-92.269,92.269
		s41.392,92.269,92.269,92.269s92.269-41.392,92.269-92.269S306.874,201.871,255.997,201.871z"/>
	<path style="fill:#435054;" d="M255.997,253.955c-22.158,0-40.185,18.027-40.185,40.186s18.027,40.185,40.185,40.185
		s40.185-18.027,40.185-40.185C296.182,271.983,278.155,253.955,255.997,253.955z"/>
</g>
<path style="fill:#E5E9EA;" d="M306.857,118.078h61.583c8.096,0,14.66-6.563,14.66-14.66V87.286c0-8.096-6.563-14.66-14.66-14.66
	h-61.583c-8.096,0-14.66,6.563-14.66,14.66v16.132C292.197,111.514,298.761,118.078,306.857,118.078z"/>
<path style="fill:#E29A4B;" d="M368.44,125.914h-61.583c-12.405,0-22.497-10.092-22.497-22.497V87.287
	c0-12.405,10.092-22.497,22.497-22.497h61.583c12.405,0,22.497,10.092,22.497,22.497v16.131
	C390.936,115.823,380.844,125.914,368.44,125.914z M306.857,80.463c-3.763,0-6.823,3.061-6.823,6.823v16.131
	c0,3.763,3.06,6.823,6.823,6.823h61.583c3.763,0,6.823-3.061,6.823-6.823V87.287c0-3.763-3.061-6.823-6.823-6.823
	C368.44,80.463,306.857,80.463,306.857,80.463z"/>
<circle style="fill:#566368;" cx="97.332" cy="410.237" r="28.338"/>
<g>
</g>
<g>
</g>
<g>
</g>
<g>
</g>
<g>
</g>
<g>
</g>
<g>
</g>
<g>
</g>
<g>
</g>
<g>
</g>
<g>
</g>
<g>
</g>
<g>
</g>
<g>
</g>
<g>
</g>
</svg>
